X: 1
T: Fairy Toddler
C: J-35
C: Graham Townsend
M: 6/8
Z: Transcribed to abc by Mary Lou Knack
R: jig
K: D
D/E/| "D"F2F FEF| DFA dcd| "G"Bcd "D"AFD| "Em"EFD "A"CB,A,|
      "D"F2F FEF| DFA dcd| "G"Bcd "D"AFD| "A"EDC "D"D2:|
|:\
f/g/| "D"afd A2f| "A"gec A2g| "D"fed "Bm"Bcd| "Em"efd "A"cBA|
      "D"afd A2f| "A"gec A2g| "G"gbg "D"faf| "A"gec "D"d2:|
%%text 9/1/98.  From Donna Hebert.
